templates/main/source/images/ask a question.svg

<?xml version="1.0" encoding="UTF-8"?>
<svg width="16px" height="16px" viewBox="0 0 16 16" version="1.1" xmlns="http://www.w3.org/2000/svg" xmlns:xlink="http://www.w3.org/1999/xlink">
    <!-- Generator: Sketch 53.2 (72643) - https://sketchapp.com -->
    <title>round-keyboard_arrow_left-24px</title>
    <desc>Created with Sketch.</desc>
    <g id="Page-1" stroke="none" stroke-width="1" fill="none" fill-rule="evenodd">
        <g id="02---02---Карточка_desktop" transform="translate(-136.000000, -888.000000)" fill="#bb0000" fill-rule="nonzero">
            <g id="карточка" transform="translate(132.000000, 190.000000)">
                <g id="ask-question-24px" transform="translate(0.000000, 694.000000)">
                    <path d="M19,8 C19.552,8 20,8.448 20,9 L20,16 C20,16.552 19.552,17 19,17 L17,17 L17,20 L14,17 L9,17 L10.828,15 L17,15 C17.552,15 18,14.552 18,14 L18,8 L19,8 Z M5,4 L15,4 C15.552,4 16,4.448 16,5 L16,12 C16,12.552 15.552,13 15,13 L10,13 L7,16 L7,13 L5,13 C4.448,13 4,12.552 4,12 L4,5 C4,4.448 4.448,4 5,4 Z" id="Combined-Shape"></path>
                </g>
            </g>
        </g>
    </g>
</svg>

<svg width="16" height="16" viewBox="0 0 16 16" xmlns="http://www.w3.org/2000/svg" xmlns:xlink="http://www.w3.org/1999/xlink"><g id="Page-1" stroke="none" stroke-width="1" fill="none" fill-rule="evenodd"><g id="02---02---Карточка_desktop" transform="translate(-136 -888)" fill="#b00" fill-rule="nonzero"><g id="карточка" transform="translate(132 190)"><g id="ask-question-24px" transform="translate(0 694)"><path d="M19 8a1 1 0 011 1v7a1 1 0 01-1 1h-2v3l-3-3H9l1.828-2H17a1 1 0 001-1V8h1zM5 4h10a1 1 0 011 1v7a1 1 0 01-1 1h-5l-3 3v-3H5a1 1 0 01-1-1V5a1 1 0 011-1z" id="Combined-Shape"/></g></g></g></g></svg>
